X:1
T:When He Cometh
T:When He Cometh
T:George Frederick Root
T:William Orcutt Cushing, 1856
T:Public Domain Courtesy of the Cyber Hymnal™
C:George Frederick Root
Z:Public Domain
Z:Courtesy of the Cyber Hymnal™
%%score ( 1 2 ) ( 3 4 )
L:1/8
Q:1/4=110
M:3/4
K:E
V:1 treble 
V:2 treble 
V:3 bass 
V:4 bass 
V:1
 E[EF] | [EG]2 [EG]2 [EG][EA] | [EB]2 [EB]2 [Ec]2 | [EG]2 [EG]2 [DF]2 | E2 E2 E[EF] | %5
w: 1.~When He|com- eth, when He|com- eth To|make up His|jew- els, All His|
w: 2.~He will|ga- ther, He will|ga- ther The|gems for His|king- dom; All the|
w: 3.~Lit- tle|child- ren, lit- tle|child- ren, Who|love their Re-|deem- er, Are the|
 [EG]2 [EG]2 [EG][EA] | [EB]2 [EB]2 [Ec]2 | [EG]2 [EG]2 [DF]2 | E4 ||"^Refrain" [Ee][Ed] | %10
w: jew- els, pre- cious|jew- els, His|loved and His|own.||
w: pure ones, all the|bright ones, His|loved and His|own.|Like the|
w: jew- els, pre- cious|jew- els, His|loved and His|own.||
 [Ec]2 [Ec]2 [Ae]2 | [GB]2 [GB]2 (c>B) | E2 E2 [DF]2 | [EG]2 [EB]2 [Ee][Ed] | [Ec]2 [Ec]2 [Ae]2 | %15
w: |||||
w: stars of the|morn- ing, His *|bright- ness a-|dorn- ing, They shall|shine in their|
w: |||||
 [GB]2 [GB]2 [Ec]2 | [EB]2 E2 [DF]2 | E4 |] %18
w: |||
w: beau- ty, Bright|gems for His|crown.|
w: |||
V:2
 E x | x6 | x6 | x6 | E2 E2 E x | x6 | x6 | x6 | E4 || x2 | x6 | x4 E2 | E2 E2 x2 | x6 | x6 | x6 | %16
 x2 E2 x2 | E4 |] %18
V:3
 [E,G,][E,A,] | [E,B,]2 [E,B,]2 [E,B,][E,A,] | [E,G,]2 [E,G,]2 [A,,A,]2 | %3
 (E,G,) [B,,B,]2 [B,,A,]2 | [E,G,]2 [E,G,]2 [E,G,][E,A,] | [E,B,]2 [E,B,]2 [E,B,][E,A,] | %6
 [E,G,]2 [E,G,]2 [A,,A,]2 | (E,G,) [B,,B,]2 [B,,A,]2 | [E,G,]4 || [E,G,][E,G,] | A,2 A,2 [A,,C]2 | %11
 [E,G,]2 E,2 [E,G,]2 | [C,G,]2 [C,G,]2 [B,,B,]2 | [E,B,]2 [E,G,]2 [E,G,][E,G,] | A,2 A,2 [A,C]2 | %15
 [E,C]2 [E,G,]2 [A,,A,]2 | [B,,G,]2 [B,,G,]2 [B,,A,]2 | [E,G,]4 |] %18
V:4
 x2 | x6 | x6 | B,,2 x4 | x6 | x6 | x6 | B,,2 x4 | x4 || x2 | A,2 A,2 x2 | x2 E,2 x2 | x6 | x6 | %14
 A,2 A,2 x2 | x6 | x6 | x4 |] %18

